flaticon/user-interface/browser-40.svg

<svg xmlns="http://www.w3.org/2000/svg" width="32" height="32" viewBox="0 0 24 24">
    <path d="M2.800781 1.199219C1.917969 1.199219 1.199219 1.917969 1.199219 2.800781 1.199219 3.683594 1.917969 4.398438 2.800781 4.398438 3.683594 4.398438 4.398438 3.683594 4.398438 2.800781 4.398438 1.917969 3.683594 1.199219 2.800781 1.199219zM2.800781 3.601562C2.359375 3.601562 2 3.242188 2 2.800781 2 2.359375 2.359375 2 2.800781 2 3.242188 2 3.601562 2.359375 3.601562 2.800781 3.601562 3.242188 3.242188 3.601562 2.800781 3.601562zM6.398438 1.199219C5.519531 1.199219 4.800781 1.917969 4.800781 2.800781 4.800781 3.683594 5.519531 4.398438 6.398438 4.398438 7.28125 4.398438 8 3.683594 8 2.800781 8 1.917969 7.28125 1.199219 6.398438 1.199219zM6.398438 3.601562C5.957031 3.601562 5.601562 3.242188 5.601562 2.800781 5.601562 2.359375 5.957031 2 6.398438 2 6.839844 2 7.199219 2.359375 7.199219 2.800781 7.199219 3.242188 6.839844 3.601562 6.398438 3.601562zM10 1.199219C9.117188 1.199219 8.398438 1.917969 8.398438 2.800781 8.398438 3.683594 9.117188 4.398438 10 4.398438 10.882812 4.398438 11.601562 3.683594 11.601562 2.800781 11.601562 1.917969 10.882812 1.199219 10 1.199219zM10 3.601562C9.558594 3.601562 9.199219 3.242188 9.199219 2.800781 9.199219 2.359375 9.558594 2 10 2 10.441406 2 10.800781 2.359375 10.800781 2.800781 10.800781 3.242188 10.441406 3.601562 10 3.601562zM10 3.601562"/>
    <path d="M 0 0 L 0 24 L 24 24 L 24 0 Z M 0.800781 0.800781 L 23.199219 0.800781 L 23.199219 4.800781 L 0.800781 4.800781 Z M 23.199219 23.199219 L 0.800781 23.199219 L 0.800781 5.601562 L 23.199219 5.601562 Z M 23.199219 23.199219"/>
    <path d="M 17.601562 11.199219 C 18.703125 11.199219 19.601562 10.304688 19.601562 9.199219 C 19.601562 8.097656 18.703125 7.199219 17.601562 7.199219 C 16.496094 7.199219 15.601562 8.097656 15.601562 9.199219 C 15.601562 10.304688 16.496094 11.199219 17.601562 11.199219 Z M 17.601562 8 C 18.261719 8 18.800781 8.539062 18.800781 9.199219 C 18.800781 9.863281 18.261719 10.398438 17.601562 10.398438 C 16.9375 10.398438 16.398438 9.863281 16.398438 9.199219 C 16.398438 8.539062 16.9375 8 17.601562 8 Z M 17.601562 8"/>
    <path d="M 8.398438 14.398438 C 8.398438 13.296875 7.503906 12.398438 6.398438 12.398438 C 5.296875 12.398438 4.398438 13.296875 4.398438 14.398438 C 4.398438 15.367188 5.089844 16.171875 6 16.359375 L 6 17.640625 C 5.089844 17.828125 4.398438 18.632812 4.398438 19.601562 C 4.398438 20.703125 5.296875 21.601562 6.398438 21.601562 C 7.367188 21.601562 8.171875 20.910156 8.359375 20 L 10.039062 20 C 10.226562 20.910156 11.035156 21.601562 12 21.601562 C 12.964844 21.601562 13.773438 20.910156 13.960938 20 L 15.640625 20 C 15.828125 20.910156 16.632812 21.601562 17.601562 21.601562 C 18.703125 21.601562 19.601562 20.703125 19.601562 19.601562 C 19.601562 18.632812 18.910156 17.828125 18 17.640625 L 18 16.359375 C 18.910156 16.171875 19.601562 15.367188 19.601562 14.398438 C 19.601562 13.296875 18.703125 12.398438 17.601562 12.398438 C 16.632812 12.398438 15.828125 13.089844 15.640625 14 L 13.960938 14 C 13.800781 13.21875 13.183594 12.601562 12.398438 12.441406 L 12.398438 11.160156 C 13.3125 10.972656 14 10.164062 14 9.199219 C 14 8.097656 13.101562 7.199219 12 7.199219 C 11.035156 7.199219 10.226562 7.886719 10.039062 8.800781 L 8.359375 8.800781 C 8.171875 7.886719 7.367188 7.199219 6.398438 7.199219 C 5.296875 7.199219 4.398438 8.097656 4.398438 9.199219 C 4.398438 10.304688 5.296875 11.199219 6.398438 11.199219 C 7.367188 11.199219 8.171875 10.511719 8.359375 9.601562 L 10.039062 9.601562 C 10.199219 10.382812 10.816406 11 11.601562 11.160156 L 11.601562 12.441406 C 10.6875 12.625 10 13.433594 10 14.398438 C 10 15.503906 10.898438 16.398438 12 16.398438 C 12.964844 16.398438 13.773438 15.710938 13.960938 14.800781 L 15.640625 14.800781 C 15.800781 15.582031 16.417969 16.199219 17.199219 16.359375 L 17.199219 17.640625 C 16.417969 17.800781 15.800781 18.417969 15.640625 19.199219 L 13.960938 19.199219 C 13.773438 18.289062 12.964844 17.601562 12 17.601562 C 11.035156 17.601562 10.226562 18.289062 10.039062 19.199219 L 8.359375 19.199219 C 8.199219 18.417969 7.582031 17.800781 6.800781 17.640625 L 6.800781 16.359375 C 7.710938 16.171875 8.398438 15.367188 8.398438 14.398438 Z M 5.199219 14.398438 C 5.199219 13.738281 5.738281 13.199219 6.398438 13.199219 C 7.0625 13.199219 7.601562 13.738281 7.601562 14.398438 C 7.601562 15.0625 7.0625 15.601562 6.398438 15.601562 C 5.738281 15.601562 5.199219 15.0625 5.199219 14.398438 Z M 6.398438 10.398438 C 5.738281 10.398438 5.199219 9.863281 5.199219 9.199219 C 5.199219 8.539062 5.738281 8 6.398438 8 C 7.0625 8 7.601562 8.539062 7.601562 9.199219 C 7.601562 9.863281 7.0625 10.398438 6.398438 10.398438 Z M 10.800781 9.199219 C 10.800781 8.539062 11.339844 8 12 8 C 12.660156 8 13.199219 8.539062 13.199219 9.199219 C 13.199219 9.863281 12.660156 10.398438 12 10.398438 C 11.339844 10.398438 10.800781 9.863281 10.800781 9.199219 Z M 12 15.601562 C 11.339844 15.601562 10.800781 15.0625 10.800781 14.398438 C 10.800781 13.738281 11.339844 13.199219 12 13.199219 C 12.660156 13.199219 13.199219 13.738281 13.199219 14.398438 C 13.199219 15.0625 12.660156 15.601562 12 15.601562 Z M 16.398438 14.398438 C 16.398438 13.738281 16.9375 13.199219 17.601562 13.199219 C 18.261719 13.199219 18.800781 13.738281 18.800781 14.398438 C 18.800781 15.0625 18.261719 15.601562 17.601562 15.601562 C 16.9375 15.601562 16.398438 15.0625 16.398438 14.398438 Z M 17.601562 18.398438 C 18.261719 18.398438 18.800781 18.9375 18.800781 19.601562 C 18.800781 20.261719 18.261719 20.800781 17.601562 20.800781 C 16.9375 20.800781 16.398438 20.261719 16.398438 19.601562 C 16.398438 18.9375 16.9375 18.398438 17.601562 18.398438 Z M 12 18.398438 C 12.660156 18.398438 13.199219 18.9375 13.199219 19.601562 C 13.199219 20.261719 12.660156 20.800781 12 20.800781 C 11.339844 20.800781 10.800781 20.261719 10.800781 19.601562 C 10.800781 18.9375 11.339844 18.398438 12 18.398438 Z M 7.601562 19.601562 C 7.601562 20.261719 7.0625 20.800781 6.398438 20.800781 C 5.738281 20.800781 5.199219 20.261719 5.199219 19.601562 C 5.199219 18.9375 5.738281 18.398438 6.398438 18.398438 C 7.0625 18.398438 7.601562 18.9375 7.601562 19.601562 Z M 7.601562 19.601562"/>
</svg>

<svg xmlns="http://www.w3.org/2000/svg" width="32" height="32" viewBox="0 0 24 24">
    <path d="M2.8 1.2c-.882 0-1.6.718-1.6 1.6a1.6 1.6 0 1 0 1.6-1.6zm0 2.402A.802.802 0 0 1 2.8 2a.802.802 0 0 1 0 1.602zm0 0M6.398 1.2A1.6 1.6 0 1 0 8 2.801c0-.884-.719-1.603-1.602-1.603zm0 2.402a.799.799 0 0 1-.796-.801.799.799 0 1 1 1.597 0c0 .441-.36.8-.8.8zm0 0M10 1.2c-.883 0-1.602.718-1.602 1.6A1.6 1.6 0 0 0 10 4.399a1.6 1.6 0 0 0 1.602-1.597c0-.883-.72-1.602-1.602-1.602zm0 2.402A.802.802 0 0 1 10 2a.802.802 0 0 1 0 1.602zm0 0"/>
    <path d="M0 0v24h24V0zm.8.8h22.4v4H.8zm22.4 22.4H.8V5.601h22.4zm0 0"/>
    <path d="M17.602 11.2c1.101 0 2-.895 2-2 0-1.102-.899-2-2-2a1.999 1.999 0 1 0 0 4zm0-3.2a1.2 1.2 0 1 1 0 2.398A1.2 1.2 0 0 1 16.398 9.2c0-.66.54-1.199 1.204-1.199zm0 0"/>
    <path d="M8.398 14.398c0-1.101-.894-2-2-2-1.101 0-2 .899-2 2 0 .97.692 1.774 1.602 1.961v1.282a2.007 2.007 0 0 0-1.602 1.96c0 1.102.899 2 2 2 .97 0 1.774-.69 1.961-1.601h1.68A2.01 2.01 0 0 0 12 21.602 2.01 2.01 0 0 0 13.96 20h1.68c.188.91.993 1.602 1.962 1.602 1.101 0 2-.899 2-2 0-.97-.692-1.774-1.602-1.961v-1.282a2.007 2.007 0 0 0 1.602-1.96c0-1.102-.899-2-2-2-.97 0-1.774.69-1.961 1.601h-1.68a2.008 2.008 0 0 0-1.563-1.559v-1.28A2.006 2.006 0 0 0 14 9.198c0-1.101-.898-2-2-2-.965 0-1.773.688-1.96 1.602H8.36a2.003 2.003 0 0 0-1.962-1.602c-1.101 0-2 .899-2 2a2.001 2.001 0 0 0 3.961.403h1.68c.16.78.777 1.398 1.563 1.558v1.281A1.999 1.999 0 0 0 12 16.398c.965 0 1.773-.687 1.96-1.597h1.68c.16.781.778 1.398 1.56 1.558v1.282a2.008 2.008 0 0 0-1.56 1.558h-1.68A2.006 2.006 0 0 0 12 17.602c-.965 0-1.773.687-1.96 1.597H8.36a2.008 2.008 0 0 0-1.56-1.558v-1.282a2.003 2.003 0 0 0 1.598-1.96zm-3.199 0a1.202 1.202 0 0 1 2.403 0 1.203 1.203 0 0 1-2.402 0zm1.2-4a1.2 1.2 0 0 1 0-2.398c.663 0 1.203.54 1.203 1.2a1.2 1.2 0 0 1-1.204 1.198zM10.8 9.2C10.8 8.54 11.34 8 12 8s1.2.54 1.2 1.2a1.2 1.2 0 0 1-2.4 0zM12 15.602a1.202 1.202 0 0 1 0-2.402 1.202 1.202 0 0 1 0 2.402zm4.398-1.204a1.202 1.202 0 1 1 1.203 1.203c-.663 0-1.203-.538-1.203-1.203zm1.204 4a1.202 1.202 0 1 1-1.203 1.203c0-.663.539-1.203 1.203-1.203zm-5.602 0a1.202 1.202 0 0 1 0 2.402 1.202 1.202 0 0 1 0-2.402zm-4.398 1.204a1.202 1.202 0 1 1-1.203-1.203c.664 0 1.203.539 1.203 1.203zm0 0"/>
</svg>
